X: 32995
T: Pretty Maggie Morrissey
R: hornpipe
M: 4/4
K: Gmajor
|:Bc|dBGB cAFA|(3GFG (3AGF GABc|dg (3gfg efge|dBGB (3AAA Bc|
dBGB cAFA|(3GFG (3AGF GABc|dg (3gfg ecAF|(3GFG (3AGF GA:|
|:Bc|dg (3gfg eg (3gfg|dg (3gfg eg (3gfg|dg (3gfg efge|dBGB (3AAA Bc|
dBGB cAFA|(3GFG (3AGF GABc|dg (3gfg ecAF|(3GFG (3AGF G2:|

